<?xml version="1.0" encoding="UTF-8"?>
<map version="1.10" tiledversion="1.12.2" orientation="orthogonal" renderorder="right-down" width="50" height="30" tilewidth="16" tileheight="16" infinite="0" nextlayerid="3" nextobjectid="1">
 <properties>
  <property name="solid" type="bool" value="true"/>
 </properties>
 <tileset firstgid="1" source="Pixelthulhu.tsx"/>
 <tileset firstgid="295" source="backgrounds.tsx"/>
 <layer id="2" name="backgrounds" width="50" height="30">
  <data encoding="csv">
0,0,0,0,0,0,0,0,0,0,0,0,0,0,0,0,0,0,0,0,0,0,0,0,0,0,0,0,0,0,0,0,0,0,0,0,0,0,0,0,0,0,0,0,0,0,442,443,444,445,
0,296,297,298,299,300,301,302,303,304,306,307,308,309,310,311,312,313,324,325,326,327,328,306,307,308,309,310,311,312,313,324,325,326,327,328,306,307,308,309,310,311,312,313,325,0,481,482,483,484,
0,335,336,337,338,339,340,341,342,343,345,346,347,348,349,350,351,352,363,364,365,366,367,345,346,347,348,349,350,351,352,363,364,365,366,367,345,346,347,348,349,350,351,352,364,0,520,521,522,523,
0,374,375,376,377,378,379,380,381,382,384,385,386,387,388,389,390,391,402,403,404,405,406,384,385,386,387,388,389,390,391,402,403,404,405,406,384,385,386,387,388,389,390,391,403,0,364,365,366,367,
0,413,414,415,416,417,418,419,420,421,423,424,425,426,427,428,429,430,441,442,443,444,445,423,424,425,426,427,428,429,430,441,442,443,444,445,423,424,425,426,427,428,429,430,442,0,403,404,405,406,
0,452,453,454,455,456,457,458,459,460,462,463,464,465,466,467,468,469,480,481,482,483,484,462,463,464,465,466,467,468,469,480,481,482,483,484,462,463,464,465,466,467,468,469,481,0,442,443,444,445,
0,491,492,493,494,495,496,497,498,499,501,502,503,504,505,506,507,508,519,520,521,522,523,501,502,503,504,505,506,507,508,519,520,521,522,523,501,502,503,504,505,506,507,508,520,0,481,482,483,484,
0,530,531,532,533,534,535,536,537,538,540,541,542,543,544,545,546,547,558,559,560,561,562,540,541,542,543,544,545,546,547,363,364,365,366,367,540,541,542,543,544,545,546,547,0,0,442,443,444,445,
0,569,570,571,572,573,574,575,576,577,579,580,581,582,583,584,585,586,597,598,599,600,601,579,580,581,582,583,584,585,586,402,403,404,405,406,579,580,581,582,583,584,585,586,0,0,481,482,483,484,
0,608,609,610,611,612,613,614,615,616,618,619,620,621,622,623,624,625,636,637,638,639,640,618,619,620,621,622,623,624,625,441,442,443,444,445,618,619,620,621,622,623,624,625,0,0,520,521,522,523,
0,647,648,649,650,651,652,653,654,655,657,658,659,660,661,662,663,664,675,676,677,678,679,657,658,659,660,661,662,663,664,480,481,482,483,484,657,658,659,660,661,662,663,664,0,0,364,365,366,367,
0,686,687,688,689,690,691,692,693,694,696,697,659,660,661,662,702,703,714,715,716,717,718,696,697,659,660,661,662,702,703,441,442,443,444,445,696,697,659,660,661,662,702,703,0,0,403,404,405,406,
0,725,726,727,728,729,730,731,732,733,735,736,698,699,700,701,741,742,753,754,755,756,757,735,736,698,699,700,701,702,742,480,481,482,483,484,735,736,698,699,700,701,702,742,0,442,443,444,445,445,
0,483,483,483,483,483,483,483,483,483,483,483,737,738,739,740,741,483,483,483,483,483,483,483,483,737,738,739,740,741,483,483,483,483,483,483,483,483,737,738,739,740,741,483,0,481,482,483,484,484,
0,0,0,0,0,0,483,483,483,0,0,0,0,0,0,0,0,0,0,0,0,0,0,0,0,0,0,0,0,0,0,0,483,483,483,483,483,483,483,483,483,483,483,483,0,520,521,522,523,523,
0,0,0,0,0,0,0,0,0,0,0,0,0,0,0,0,0,0,0,0,0,0,0,0,0,0,0,0,0,0,0,0,0,483,483,483,483,483,483,483,483,483,483,483,0,364,365,366,367,367,
295,296,297,298,299,300,301,302,303,304,306,307,308,309,310,311,312,313,324,325,326,327,328,306,307,308,309,310,311,312,313,324,325,326,327,328,306,307,308,309,310,311,312,324,325,403,404,405,406,406,
334,335,336,337,338,339,340,341,342,343,345,346,347,348,349,350,351,352,363,364,365,366,367,345,346,347,348,349,350,351,352,363,364,365,366,367,345,346,347,348,349,350,351,363,364,442,443,444,445,445,
373,374,375,376,377,378,379,380,381,382,384,385,386,387,388,389,390,391,402,403,404,405,406,384,385,386,387,388,389,390,391,402,403,404,405,406,384,385,386,387,388,389,390,402,403,481,482,483,484,484,
412,413,414,415,416,417,418,419,420,421,423,424,425,426,427,428,429,430,441,442,443,444,445,423,424,425,426,427,428,429,430,441,442,443,444,445,423,424,425,426,427,428,429,441,442,442,443,444,445,445,
451,452,453,454,455,456,457,458,459,460,462,463,464,465,466,467,468,469,480,481,482,483,484,462,463,464,465,466,467,468,469,480,481,482,483,484,462,463,464,465,466,467,468,480,481,0,0,0,0,0,
490,491,492,493,494,495,496,497,498,499,501,502,503,504,505,506,507,508,519,520,521,522,523,501,502,503,504,505,506,507,508,519,520,521,522,523,501,502,503,504,505,506,507,519,520,0,0,0,0,0,
529,530,531,532,533,534,535,536,537,538,540,541,542,543,544,545,546,547,558,559,560,561,562,540,541,542,543,544,545,546,547,558,559,560,561,562,540,541,542,543,544,545,546,0,0,0,0,0,0,0,
568,569,570,571,572,573,574,575,576,577,579,580,581,582,583,584,585,586,597,598,599,600,601,579,580,581,582,583,584,585,586,597,598,599,600,601,579,580,581,582,583,584,585,0,0,0,0,0,0,0,
607,608,609,610,611,612,613,614,615,616,618,619,620,621,622,623,624,625,636,637,638,639,640,618,619,620,621,622,623,624,625,636,637,638,639,640,618,619,620,621,622,623,624,0,0,0,0,0,0,0,
646,647,648,649,650,651,652,653,654,655,657,658,659,660,661,662,663,664,675,676,677,678,679,657,658,659,660,661,662,663,664,675,676,677,678,679,657,658,659,660,661,662,663,0,0,0,0,0,0,0,
685,686,687,688,689,690,691,692,693,694,696,697,698,699,700,701,702,703,714,715,716,717,718,696,697,698,699,700,701,702,703,714,715,716,717,718,696,697,698,699,700,701,702,0,0,0,0,0,0,0,
724,725,726,727,728,729,730,731,732,733,735,736,737,738,739,740,741,742,753,754,755,756,757,735,736,737,738,739,740,741,742,753,754,755,756,757,735,736,737,738,739,740,741,0,0,0,0,0,0,0,
0,0,0,0,0,0,0,0,0,0,0,0,0,0,0,0,0,0,0,0,0,0,0,0,0,0,0,0,0,0,0,0,0,0,0,0,0,0,0,0,0,0,0,0,0,0,0,0,0,0,
0,0,0,0,0,0,0,0,0,0,0,0,0,0,0,0,0,0,0,0,0,0,0,0,0,0,0,0,0,0,0,0,0,0,0,0,0,0,0,0,0,0,0,0,0,0,0,0,0,0
</data>
 </layer>
 <layer id="1" name="Tile Layer 1" width="50" height="30">
  <properties>
   <property name="solid" type="bool" value="true"/>
  </properties>
  <data encoding="csv">
134,134,134,134,134,134,134,134,134,134,134,134,134,135,134,134,134,134,135,134,134,134,134,134,134,134,134,134,134,134,134,134,134,134,134,134,134,134,134,134,134,134,134,135,134,135,0,0,0,0,
134,0,0,0,0,0,0,0,0,0,0,0,0,0,134,134,134,155,156,0,0,0,0,0,0,0,0,0,0,0,0,0,0,0,0,0,0,0,155,156,0,0,0,0,134,135,0,0,0,0,
134,0,0,0,0,0,0,0,0,0,0,0,0,0,134,134,155,156,0,0,0,0,0,0,0,0,0,0,0,0,0,0,0,0,0,0,0,0,176,177,0,0,0,0,134,135,0,0,0,0,
134,0,0,0,0,0,0,0,0,0,0,0,0,0,134,155,156,0,0,0,0,0,0,0,0,0,0,0,0,0,0,0,0,0,0,0,0,0,176,177,0,0,0,0,134,135,0,0,0,0,
134,0,0,0,0,113,114,113,113,114,0,0,0,0,155,156,0,0,0,0,0,0,0,0,0,0,0,0,0,0,0,0,0,0,0,0,0,0,0,0,0,0,0,0,134,135,0,0,0,0,
134,0,0,0,0,0,0,155,0,0,0,0,0,0,176,177,0,0,0,0,0,0,0,0,0,0,0,0,0,0,0,0,0,0,0,0,0,0,0,0,0,0,0,0,134,135,0,0,0,0,
134,0,0,0,0,0,0,155,0,0,0,0,0,0,0,0,0,0,0,0,0,0,0,0,0,0,0,0,113,113,114,0,0,0,0,0,0,0,0,0,0,0,0,0,134,135,0,0,0,0,
134,0,0,0,0,0,0,155,0,0,0,0,0,0,0,0,0,0,0,0,0,0,0,0,0,0,0,0,0,134,135,0,0,0,0,0,113,113,114,114,0,0,0,0,134,135,0,0,0,0,
134,0,0,0,0,0,0,155,0,0,0,0,0,0,0,0,0,0,0,0,0,0,0,0,0,0,0,0,0,155,156,0,0,0,0,0,0,155,156,156,155,156,156,156,134,135,0,0,0,0,
134,0,0,0,113,113,114,114,114,113,114,113,114,113,114,113,114,113,114,113,114,113,114,113,114,113,114,113,114,114,114,0,0,0,0,0,0,176,177,177,176,177,177,177,134,135,0,0,0,0,
134,0,0,0,0,134,135,134,135,134,135,134,135,134,135,134,135,134,135,134,135,134,135,134,135,134,135,134,135,134,135,0,0,0,0,0,0,0,0,0,0,0,0,0,134,134,134,134,135,0,
134,0,0,0,0,0,0,0,0,0,0,0,0,0,0,0,0,0,0,0,0,0,0,0,0,0,0,0,0,0,0,0,0,0,0,0,0,0,0,0,0,0,0,0,134,134,134,134,134,135,
134,0,0,0,0,0,0,0,0,0,0,0,0,0,0,0,0,0,0,0,0,0,0,0,0,0,0,0,0,0,0,0,0,0,0,0,0,0,0,0,0,0,0,0,134,135,0,0,134,135,
134,0,0,0,0,0,0,0,0,0,0,0,0,0,0,0,0,0,0,0,0,0,0,0,0,0,0,0,0,0,0,0,0,0,0,0,0,0,0,0,0,0,0,0,134,135,0,0,0,177,
134,114,113,114,113,114,113,114,113,114,113,114,113,114,113,114,113,114,113,114,113,114,113,114,113,114,113,114,113,114,113,114,227,0,0,0,0,0,113,114,113,114,113,114,134,135,0,0,0,177,
134,135,134,135,134,135,134,135,134,135,134,135,134,135,134,135,134,135,134,135,134,135,134,135,134,135,134,135,134,135,134,135,135,0,0,0,0,0,134,135,134,135,134,135,134,135,0,0,0,0,
134,0,0,0,0,0,0,0,0,0,0,0,0,0,0,0,0,0,0,0,0,0,0,0,0,0,0,0,0,0,0,0,0,0,0,0,0,0,0,0,0,0,0,0,0,118,119,120,121,122,
134,0,0,0,0,0,0,0,0,0,0,0,0,0,0,0,0,0,0,0,0,0,0,0,0,0,0,0,0,0,0,0,0,0,0,0,0,0,0,0,0,0,0,0,0,139,140,141,142,143,
134,0,0,0,0,0,0,0,0,0,0,0,0,0,0,0,0,0,0,0,0,0,0,0,0,0,0,0,0,0,0,0,0,0,0,0,0,0,0,0,0,0,0,0,0,160,161,162,163,164,
134,0,0,0,0,0,0,0,0,0,0,0,0,0,0,0,0,0,0,0,0,0,0,0,0,0,0,0,0,0,0,0,0,0,0,0,0,0,0,0,0,0,0,0,0,181,182,183,184,185,
134,0,0,0,0,0,0,0,0,0,0,0,0,0,0,0,0,0,0,0,0,0,0,0,0,0,0,0,223,113,114,113,114,113,114,113,114,113,114,113,114,113,114,113,114,149,149,149,149,149,
134,0,0,0,0,0,0,0,0,0,0,0,0,0,0,0,0,0,0,0,0,0,0,0,0,0,0,0,152,134,135,134,135,134,135,134,135,134,135,134,135,134,135,134,135,134,135,134,135,134,
134,0,0,0,0,0,0,0,0,0,0,0,0,0,0,0,0,0,0,0,0,0,0,0,0,0,223,152,134,135,156,155,156,155,156,155,156,155,156,155,156,155,156,155,156,155,156,155,156,155,
134,0,0,0,0,0,0,0,0,0,0,0,0,0,0,0,0,0,0,0,0,0,0,0,0,0,152,134,155,156,177,176,177,176,177,176,177,176,177,176,177,176,177,176,177,176,177,176,177,176,
134,0,0,0,0,0,0,0,0,0,0,0,0,0,0,0,0,0,0,0,0,0,0,0,223,152,134,135,176,177,245,245,245,245,245,245,245,245,245,245,245,245,245,245,245,245,245,245,245,245,
134,0,0,0,0,0,0,0,0,0,0,0,0,0,0,0,0,0,0,0,0,0,0,0,152,134,155,156,177,245,245,245,245,245,245,245,245,245,245,245,245,245,245,245,245,245,245,245,245,245,
134,0,0,0,0,0,0,0,0,0,0,0,0,0,0,0,0,0,0,0,0,0,223,152,134,135,176,177,245,245,245,245,245,245,245,245,245,245,245,245,245,245,245,245,245,245,245,245,245,245,
134,0,0,0,0,0,0,0,0,0,0,0,0,0,0,0,0,0,0,0,0,223,152,134,155,156,177,245,245,245,245,245,245,245,245,245,245,245,245,245,245,245,245,245,245,245,245,245,245,245,
134,114,113,114,113,114,113,114,113,114,113,114,113,114,113,114,113,114,113,114,113,149,134,135,176,177,245,245,245,245,245,245,245,245,245,245,245,245,245,245,245,245,245,245,245,245,245,245,245,245,
134,134,134,135,134,135,134,135,134,135,134,135,134,135,134,135,134,135,134,135,134,135,155,156,177,245,245,245,245,245,245,245,245,245,245,245,245,245,245,245,245,245,245,245,245,245,245,245,245,245
</data>
 </layer>
</map>
